svg/clock_time_one_outline.svg

<svg xmlns="http://www.w3.org/2000/svg" viewBox="0 0 24 24"><path d="M12 20c4.42 0 8-3.58 8-8s-3.58-8-8-8-8 3.58-8 8 3.58 8 8 8m0-18c5.5 0 10 4.5 10 10s-4.5 10-10 10C6.47 22 2 17.5 2 12S6.5 2 12 2m3.3 5.8-3 5.2H11V7h1.5v2.65l1.5-2.6z"/></svg>

<?xml version="1.0" encoding="UTF-8"?><!DOCTYPE svg PUBLIC "-//W3C//DTD SVG 1.1//EN" "http://www.w3.org/Graphics/SVG/1.1/DTD/svg11.dtd"><svg xmlns="http://www.w3.org/2000/svg" xmlns:xlink="http://www.w3.org/1999/xlink" version="1.1" id="mdi-clock-time-one-outline" width="24" height="24" viewBox="0 0 24 24"><path d="M12 20C16.42 20 20 16.42 20 12S16.42 4 12 4 4 7.58 4 12 7.58 20 12 20M12 2C17.5 2 22 6.5 22 12S17.5 22 12 22C6.47 22 2 17.5 2 12C2 6.5 6.5 2 12 2M15.3 7.8L12.3 13H11V7H12.5V9.65L14 7.05L15.3 7.8Z" /></svg>
